app/images/logo.svg

<svg width="40" height="41" viewBox="0 0 40 41" fill="none" xmlns="http://www.w3.org/2000/svg">
<path d="M38.1013 12.3829C37.3558 10.6238 36.3691 8.9844 35.1715 7.5151C33.401 5.27825 31.1916 3.45367 28.6886 2.16146C26.1857 0.869246 23.4459 0.1387 20.6496 0.0179001C17.8533 -0.1029 15.0639 0.388783 12.465 1.46059C9.86614 2.5324 7.51669 4.16004 5.57129 6.23637C3.62589 8.3127 2.12865 10.7907 1.17813 13.5071C0.227602 16.2236 -0.154663 19.117 0.0564947 21.9969C0.267652 24.8769 1.06744 27.678 2.40323 30.2159C3.73901 32.7539 5.5805 34.9712 7.8065 36.7218C9.23482 37.8675 10.8131 38.7989 12.4943 39.4883C14.8514 40.4851 17.3741 40.9985 19.9215 41C25.1797 40.988 30.2189 38.8251 33.9343 34.9853C37.6497 31.1455 39.7382 25.9422 39.7421 20.516C39.7459 17.7171 39.1873 14.9477 38.1013 12.3829V12.3829ZM19.9069 4.17416C22.1944 4.17391 24.4544 4.68987 26.5284 5.6859V5.6859C26.0226 5.9114 25.4909 6.0689 24.9462 6.15454C23.154 6.42226 21.4938 7.2809 20.2133 8.60229C18.9328 9.92369 18.1007 11.637 17.8413 13.4864C17.7274 14.5237 17.2703 15.4886 16.547 16.2184C15.8238 16.9483 14.8787 17.3983 13.8713 17.4925C12.0791 17.7603 10.4189 18.6189 9.13837 19.9403C7.85788 21.2617 7.02583 22.975 6.7664 24.8244C6.67856 25.8107 6.2708 26.7375 5.6091 27.4549V27.4549C4.46741 24.9654 3.95453 22.2184 4.11819 19.4695C4.28186 16.7205 5.11674 14.0589 6.54514 11.7325C7.97355 9.40597 9.94906 7.49018 12.2878 6.16338C14.6266 4.83657 17.2526 4.14188 19.9215 4.14393L19.9069 4.17416ZM7.79185 31.0981C7.96764 30.9319 8.14344 30.7807 8.31923 30.5993C9.62251 29.2953 10.4591 27.5741 10.6924 25.7164C10.787 24.6721 11.2388 23.6968 11.9669 22.965C12.6675 22.2124 13.6105 21.7501 14.6184 21.6649C16.4107 21.3972 18.0709 20.5386 19.3514 19.2172C20.6319 17.8958 21.4639 16.1825 21.7234 14.333C21.7867 13.2408 22.2409 12.2118 22.9979 11.4456C23.7158 10.7077 24.6678 10.2621 25.6787 10.1909C27.3252 9.9571 28.8607 9.20176 30.0735 8.02909C31.4544 9.21137 32.6244 10.6336 33.5307 12.2317C33.4751 12.3093 33.4112 12.3803 33.3403 12.4434C32.641 13.2025 31.6992 13.6751 30.6888 13.7737C28.8947 14.0367 27.232 14.8938 25.9506 16.2161C24.6693 17.5384 23.8387 19.2542 23.5838 21.1056C23.4806 22.1463 23.0319 23.1182 22.3137 23.8566C21.5955 24.5949 20.652 25.0544 19.6432 25.157C17.8457 25.4227 16.1793 26.2796 14.8914 27.6005C13.6035 28.9214 12.7628 30.6357 12.4943 32.4889C12.4154 33.2278 12.1696 33.9372 11.7765 34.56C10.2734 33.6391 8.9273 32.4696 7.79185 31.0981V31.0981ZM19.9069 36.9334C18.4203 36.9351 16.941 36.7214 15.5121 36.2985C16.0008 35.3582 16.3186 34.3335 16.4496 33.275C16.5523 32.2366 16.9989 31.2666 17.7141 30.5285C18.4293 29.7904 19.3694 29.3295 20.3756 29.2236C22.1705 28.9589 23.8341 28.1016 25.1174 26.7799C26.4008 25.4583 27.235 23.7433 27.4952 21.8917C27.5979 20.8533 28.0445 19.8832 28.7597 19.1451C29.4749 18.4071 30.415 17.9462 31.4212 17.8402C32.7719 17.6589 34.0593 17.14 35.1715 16.3285C35.789 18.7441 35.8622 21.2736 35.3853 23.7229C34.9085 26.1722 33.8943 28.4763 32.4205 30.4583C30.9468 32.4403 29.0527 34.0477 26.8835 35.157C24.7143 36.2663 22.3278 36.8481 19.9069 36.8579V36.9334Z" fill="#C40B0B"/>
</svg>

<svg width="40" height="41" fill="none" xmlns="http://www.w3.org/2000/svg"><path d="M38.101 12.383a20.145 20.145 0 00-2.93-4.868 19.945 19.945 0 00-6.482-5.354 19.335 19.335 0 00-8.04-2.143c-2.796-.12-5.585.37-8.184 1.443a19.796 19.796 0 00-6.894 4.775 20.563 20.563 0 00-4.393 7.271 21.058 21.058 0 00-1.122 8.49 20.94 20.94 0 002.347 8.219 20.292 20.292 0 005.403 6.506 19.036 19.036 0 004.688 2.766c2.357.997 4.88 1.51 7.428 1.512 5.258-.012 10.297-2.175 14.012-6.015 3.716-3.84 5.804-9.043 5.808-14.469a20.797 20.797 0 00-1.64-8.133zM19.907 4.174c2.287 0 4.547.516 6.621 1.512a6.28 6.28 0 01-1.582.469 8.302 8.302 0 00-4.733 2.447 8.767 8.767 0 00-2.372 4.884 4.592 4.592 0 01-1.294 2.732 4.336 4.336 0 01-2.676 1.274 8.302 8.302 0 00-4.733 2.448 8.767 8.767 0 00-2.372 4.884 4.464 4.464 0 01-1.157 2.63 16.778 16.778 0 01-1.49-7.985 16.69 16.69 0 012.426-7.737 16.037 16.037 0 015.743-5.569 15.437 15.437 0 017.634-2.02l-.015.031zM7.792 31.098c.176-.166.351-.317.527-.499a8.383 8.383 0 002.373-4.883 4.472 4.472 0 011.275-2.751 4.095 4.095 0 012.651-1.3 8.301 8.301 0 004.733-2.448 8.767 8.767 0 002.372-4.884 4.477 4.477 0 011.275-2.887 4.148 4.148 0 012.68-1.255 7.928 7.928 0 004.395-2.162 15.77 15.77 0 013.458 4.203c-.056.077-.12.148-.19.211a4.156 4.156 0 01-2.652 1.33 8.272 8.272 0 00-4.738 2.443 8.737 8.737 0 00-2.367 4.89 4.596 4.596 0 01-1.27 2.75 4.34 4.34 0 01-2.67 1.301 8.343 8.343 0 00-4.753 2.444 8.81 8.81 0 00-2.397 4.888 4.845 4.845 0 01-.717 2.071 16.086 16.086 0 01-3.985-3.462zm12.115 5.835a15.42 15.42 0 01-4.395-.635c.489-.94.807-1.965.938-3.023a4.596 4.596 0 011.264-2.746 4.34 4.34 0 012.662-1.305 8.3 8.3 0 004.741-2.444 8.766 8.766 0 002.378-4.888 4.597 4.597 0 011.265-2.747 4.341 4.341 0 012.661-1.305 8.216 8.216 0 003.75-1.512c.618 2.416.691 4.946.214 7.395a16.606 16.606 0 01-2.965 6.735 15.969 15.969 0 01-5.537 4.699 15.452 15.452 0 01-6.976 1.7v.076z" fill="#C40B0B"/></svg>
